X:1
T:Hodie Simon Petrus
T:Andrea Gabrieli
T:Source : Liber primus Ecclesiasticarum Cantionum---Venetia---And;Gardano---1576. Editor : André Vierendeels (13/09/17).
T:Hodie Simon Petrus
T:©
T:©
T:©
T:©
T:©
C:Andrea Gabrieli
Z:©
%%score [ 1 2 3 4 ]
L:1/8
Q:1/4=120
M:2/2
K:C
V:1 treble nm="Soprano" snm="S"
V:2 treble nm="Alto" snm="A"
V:3 treble-8 nm="Tenor 1" snm="T 1"
V:4 treble-8 nm="Tenor 2" snm="T 2"
V:1
 z8 | z4 e4- | e2 e2 e4 | f3 e d2 c2 | d4 A2 c2 | d2 e2 f4 | c2 e2 d2 d2 | c8 | z4 G4 | A2 B2 c4 | %10
w: |Ho-|* di- e|Si- * * mon|Pe- trus a-|scen- dit cru-|cis pa- ti- bu-|lum,|a-|scen- dit cru-|
 A4 _B2 A2- | A2 G2 A2 A2 | B2 c2 d2 c2- | c2 c2 c2 B2 | c4 z2 e2- | e2 d2 dc/B/ A2 | B8 | z8 | %18
w: cis pa- ti-|* bu- lum, a-|scen- dit cru- cis|_ pa- ti- bu-|lum, Al-|le- lu- * * * *|ia.||
 z8 | z8 | z4 z2 e2- | e2 e2 e2 e2 | c2 c2 f3 e | d2 GA Bc d2- | dccB/A/ B4 | A4 c3 d | %26
w: ||Ho-|* di- e cla-|vi- cu- la- ri-|us re- * * * *||gni gau- *|
 ec f2 e2 e2 | f6 e2 | A2 d3 c/B/ c2 | d4 z2 A2 | e4 e2 c2 | B8 | ^c8 | z8 | z8 | z2 e4 e2 | %36
w: * * * dens mi-|gra- vit|ad Chri- * * *|stum, mi-|fra- vit ad|Chri-|stum,|||ho- di-|
 e4 d4 | c2 d2 e2 e2 | d4 z4 | z2 d4 c2 | d2 f2 e4 | A4 z4 | z2 d4 c2 | B3 A G2 A2 | G2 E2 A4- | %45
w: e Pau-|lus A- po- sto-|lus|lu- men|or- bis ter-|re|in- cli-|na- to ca- pi-|te pro Chri-|
 A2 G2 F2 F2 | E2 E2 c2 B2 | A2 A2 G2 B2- | B2 c4 B2 | A2 e2 f2 e2- |"^#" ed d4 c2 | d2 f3 e c2 | %52
w: * sti no- mi-|ne, pro Chri- sti|no- mi- ne mar-|* ti- ri-|o co- ro- na-|* * * tus|est, Al- * *|
 d2 e2 f2 d2- | dc A2 B2 c2 | d4 c4 | B2 B2 A2 c2- | cB G2 A2 B2 | cB A4 G2 | A8- | A8- | A8 |] %61
w: le- lu- ia, Al-|* * * le- lu-|ia, Al-|le- lu- ia, Al-|* * * le- lu-||ia.|_||
V:2
 A6 A2 | A4 c3 B | A2 G2 A4 | D2 F2 G2 A2 | _B4 F2 A2 | G2 G2 F4 | z2 E2 F2 G2 | A4 E2 A2 | %8
w: Ho- di-|e Si- *|* mon Pe-|trus a- scen- dit|cru- cis pa-|ti- bu- lum,|a- scen- dit|cru- cis pa-|
 F2 F2 E2 C2- | C2 B,2 A,2 A2- | A2 D4 F2- | FE D2 C2 F2 | G2 G2 A4 | E2 G2 F2 F2 | E4 z2 G2- | %15
w: ti- bu- lum, ho-|* di- e Si-|* mon Pe-|* * * trus a-|scen- dit cru-|cis pa- ti- bu-|lum, Al-|
"^#" G2 G4 F2 | G8 | z4 z2 A2- | A2 A2 A4 | z8 | z8 | A6 A2 | A2 A2 F2 F2 | _B3 A G2 DE | %24
w: * le- lu-|ia.|Ho-|* di- e,|||Ho- di-|e cla- vi- cu-|la- ri- us re- *|
 FE A3 G/F/ G2 | A8 |"^-natural" A3 B cA c2 | A2 A2 A4 | F2 F2 E4 | D2 A2 c4- | c2 B2 E2 A2- | %31
w: |gni|gau- * * * *|dens mi- gra-|vit ad Chri-|stum, mi- gra-|* vit ad Chri-|
 A2 ^G^F G4 | A8 | z2 A4 A2 | A4 G4 | F2 G2 A2 A2 | G2 G2 _B2 B2 | A4 z4 | A4 G2 A2- | A2 D2 E4 | %40
w: |stum,|ho- di-|e Pau-|lus A- po- sto-|lus, A- po- sto-|lus|lu- men or-|* bis ter-|
 D3 C A,B, C2 | D2 A4 G2 | F3 E D2 E2 | D8 | z8 | z2 E2 A4- | A2 G2 FE E2- | E2 D2 E2 G2 | G6 G2 | %49
w: |re in- cli-|na- to ca- pi-|te||pro Chri-|* sti no- * *|* mi- ne mar-|ti- ri-|
 E2 A3 B c2 | A2 A4 A2 | A4 A4 | G2 G2 F3 G | A4 z4 | z2 A3 G E2 | F2 G2 A2 A,2 | C2 C2 A,2 D2 | %57
w: o co- * *|ro- na- tus|est, Al-|le- lu- ia, _|_|Al- * *|le- lu- ia, Al-|le- lu- ia, Al-|
 F2 ED E4 | A,2 F3 E C2 | D4 F4 | E8 |] %61
w: le- * * lu-|ia, Al- * *|le- lu-|ia.|
V:3
 z8 | z8 | z8 | z8 | z8 | z8 | z8 | z8 | z4 e4- | e2 e2 e4 | f3 e d2 c2 | d4 A2 c2 | d2 e2 f4 | %13
w: ||||||||Ho-|* di- e|Si- * * mon|Pe- trus a-|scen- dit cru-|
 c2 e2 d2 d2 | c4 z2 c2- | cB/A/ B2 A2 d2 | d4 z2 e2- | e2 e2 e2 e2 | c2 c2 f3 e | d2 GA Bc d2- | %20
w: cis pa- ti- bu-|lum, Al-|* * * * le- lu-|a. Ho-|* di- e cla-|vi- cu- la- ri-|us re- * * * *|
"^b" dccB/A/ B4 | A2 e2 c2 c2 | f3 e d4 | G3 F GA _B2 | A4 z4 | z4 e3 d | cA d2 A2 e2 | d4 d2 ^c2 | %28
w: |gni, cla- vi- cu-|la- ri- us|re- * * * *|gni|gau- *|* * * dens mi-|gra- vit ad|
 d4 A2 A2 | f4 f2 e2 | e4 c2 e2 | e8 | A8- | A4 z4 | z8 | z8 | z8 | z2 d4 c2 | d2 f2 e4 | defg a4 | %40
w: Chri- stum, mi-|gra- vit ad|Chri- stum, ad|Chri-|stum,|_||||lu- men|or- bis ter-|re _ _ _ _|
 z2 a4 g2 | f3 e d2 e2 | d4 z4 | z8 | z2 g4 f2 | e3 d c2 d2 | c2 c2 A2 B2 | c2 A2 B2 e2 | e4 d4 | %49
w: in- cli-|na- to ca- pi-|te,||in- cli-|na- to ca- pi-|te pro Chri- sti|no- mi- ne mar-|ti- ri-|
 c2 c4 c2 | f4 e4 | d4 z4 | z8 | f4 e2 e2 | d2 f3 e c2 | d2 e2 f2 f2 | e2 e2 d4 | c4 B2 B2 | %58
w: o co- ro-|na- tus|est,||Al- le- lu-|ia, Al- * *|le- lu- ia, Al-|le- lu- ia,|Al le- lu-|
 A2 d3 c A2 | f3 e dc d2- | d2 ^c2 c4 |] %61
w: ia, Al- * *|le- * * * *|* lu- ia.|
V:4
 z8 | z8 | z8 | z8 | z8 | z8 | z8 | A6 A2 | A4 c3 B | A2 G2 A4 | D2 F2 G2 A2 | _B4 F2 A2 | %12
w: |||||||Ho- di-|e Si- *|* mon Pe-|trus a- scen- dit|cru- cis pa-|
 G2 G2 F4 | z8 | z4 z2 CD | EF G2 D2 D2 | G4 z4 | A6 A2 | A2 A2 F2 F2 | _B3 A G2 DE | %20
w: ti- bu- lum,||Al- *|* * * le- lu-|ia.|Ho- di-|e cla- vi- cu-|la- ri- us re- *|
"^b" FE A3 G/F/ G2 | A8 | z8 | z8 | z4 e3 d | cA d2 A4 | z4 A3 G | FD d2 A4 | z8 | z2 D2 A4 | %30
w: |gni|||gau- *|* * * dens,|gau- *|* * * dens||mi- gra-|
 A2 ^G2 A4 | E8 | z2 e4 e2 | e4 d4 | c2 d2 e2 e2 | d2 c4 A2 | c4 G4 | A2 F2 G2 A2 | D2 d4 c2 | %39
w: vit ad Chri-|stum,|ho- di-|e Pau-|lus A- po- sto-|lus, ho- di-|e Pau-|lus A- po- sto-|lus lu- men|
 d2 _B2 A4 | D4 z4 | z8 | z8 | z2 G4 F2 | E3 D C2 D2 | C4 F4 | A6 G2 | F2 F2 E2 E2 | G4 G4 | %49
w: or- bis ter-|re|||in- cli-|na- to ca- pi-|te pro|Chri- sti|no- mi- ne mar-|ti- ri-|
 A4 A2 A2 | F3 G A2 A2 | D2 d3 c A2 | B2 c2 d4- |"^#" d4 z4 | z8 | z4 z2 A2- | AG E2 F2 G2 | %57
w: o co- ra-|na- * * tus|est, Al- * *|le- lu- ia,|_||Al-|* * * le- lu-|
 A4 E4 | F3 E D2 F2- | FEDC D2 D2 | A8 |] %61
w: ia, _|Al- * * le-|* * * * * lu-|ia.|

